dist/img/common/locked.svg

<svg width="23" height="23" viewBox="0 0 23 23" fill="none" xmlns="http://www.w3.org/2000/svg">
<path d="M11.5 21.5C17.0228 21.5 21.5 17.0228 21.5 11.5C21.5 5.97715 17.0228 1.5 11.5 1.5C5.97715 1.5 1.5 5.97715 1.5 11.5C1.5 17.0228 5.97715 21.5 11.5 21.5Z" fill="#858585" stroke="white" stroke-width="3"/>
<path d="M9.72106 9.4334C9.32684 9.60014 8.96226 9.81917 8.63159 10.0862V8.19839C8.63159 6.62848 9.90899 5.35107 11.4789 5.35107H11.5227C13.0912 5.35107 14.3686 6.62848 14.3686 8.19839V10.0862C14.0379 9.81918 13.6734 9.60016 13.2791 9.4334C13.1731 9.38818 13.0643 9.34721 12.9555 9.31047V8.19839C12.9555 7.40708 12.3126 6.76413 11.5213 6.76413H11.4775C10.6862 6.76413 10.0432 7.40708 10.0432 8.19839V9.31188C9.93585 9.34721 9.82703 9.38818 9.72106 9.4334Z" fill="white"/>
<path d="M15.5046 13.6443C15.5046 15.8557 13.7114 17.6489 11.5 17.6489C9.28855 17.6489 7.49536 15.8571 7.49536 13.6443C7.49536 12.5577 7.92919 11.5714 8.63146 10.8493C9.02712 10.4437 9.50756 10.1216 10.0445 9.91103C10.4953 9.73439 10.987 9.63831 11.5 9.63831C12.0129 9.63831 12.5047 9.73439 12.9554 9.91103C13.4924 10.1202 13.9728 10.4423 14.3685 10.8493C15.0722 11.5714 15.5046 12.5577 15.5046 13.6443ZM12.5315 12.836C12.5174 12.2892 12.0723 11.8441 11.5254 11.8314C10.9447 11.8172 10.4685 12.285 10.4685 12.8629C10.4685 12.9237 10.4741 12.983 10.484 13.0395C10.5349 13.332 10.7087 13.5835 10.9518 13.7362C11.0521 13.7998 11.1029 13.9184 11.0775 14.0329L10.7708 15.4869C10.7525 15.5745 10.8189 15.6579 10.9093 15.6579H12.0906C12.1811 15.6579 12.2475 15.576 12.2291 15.4869L11.9225 14.0329C11.8985 13.917 11.9479 13.7983 12.0483 13.7347C12.2913 13.5821 12.4651 13.332 12.516 13.0381C12.5273 12.9731 12.5329 12.9053 12.5315 12.836Z" fill="white"/>
</svg>

<svg width="23" height="23" viewBox="0 0 23 23" fill="none" xmlns="http://www.w3.org/2000/svg"><path d="M11.5 21.5c5.523 0 10-4.477 10-10s-4.477-10-10-10-10 4.477-10 10 4.477 10 10 10z" fill="#858585" stroke="#fff" stroke-width="3"/><path d="M9.721 9.433a4.552 4.552 0 00-1.09.653V8.198a2.85 2.85 0 012.848-2.847h.044a2.85 2.85 0 012.846 2.847v1.888a4.553 4.553 0 00-1.413-.776V8.198c0-.79-.643-1.434-1.435-1.434h-.044c-.79 0-1.434.643-1.434 1.434v1.114a4.058 4.058 0 00-.322.121z" fill="#fff"/><path d="M15.505 13.644a4.005 4.005 0 11-8.01 0 4.005 4.005 0 018.01 0zm-2.974-.808a1.032 1.032 0 10-1.58.9.28.28 0 01.127.297l-.307 1.454a.142.142 0 00.138.17h1.182a.14.14 0 00.138-.17l-.306-1.454a.284.284 0 01.125-.298 1.03 1.03 0 00.483-.899z" fill="#fff"/></svg>
